Origami/24x24/apps/rosegarden.svg

<svg width="24" height="24" version="1" xmlns="http://www.w3.org/2000/svg">
 <path d="m14.6329 2.1759c-2.722-0.72921-5.4995 0.8745-6.229 3.5961-2.721-0.7295-5.499 0.8745-6.228 3.5955-0.72915 2.7213 0.87461 5.499 3.5959 6.228-0.72915 2.7213 0.87461 5.499 3.5959 6.228 2.7213 0.72916 5.499-0.8746 6.228-3.5959 2.7213 0.72916 5.499-0.8746 6.228-3.5959 0.7295-2.7205-0.8745-5.498-3.596-6.2275 0.7295-2.721-0.8745-5.499-3.5955-6.228z" style="fill:#c53b7c"/>
 <path d="m18.3959 7.323c-0.01747 0.35801-0.07028 0.72015-0.16699 1.0811 0.03446 0.00924 0.06649 0.02234 0.10059 0.032225 0.06408-0.37417 0.08477-0.747 0.0664-1.1133zm-16.387 3.625c-0.11257 2.3071 1.3606 4.448 3.6621 5.115 0.02668-0.15578 0.05884-0.31198 0.10059-0.46778-2.1913-0.586-3.6553-2.502-3.7627-4.6467zm19.983 2.604c-0.01747 0.35801-0.07028 0.72016-0.16699 1.0811-0.72915 2.7213-3.5073 4.3249-6.2285 3.5957-0.72916 2.7213-3.5073 4.3249-6.2285 3.5957-2.1913-0.58715-3.6552-2.5028-3.7627-4.6475-0.11424 2.3413 1.4024 4.515 3.7627 5.1475 2.7213 0.72916 5.4995-0.8744 6.2285-3.5957 2.7213 0.72916 5.4995-0.8744 6.2285-3.5957 0.14201-0.53 0.19298-1.0624 0.16699-1.5811z" style="opacity:.2"/>
 <path d="m13.1099 2.0039c-2.169 0.0836-4.1135 1.5565-4.7055 3.7676-2.7215-0.729-5.4995 0.8745-6.2285 3.5955-0.1423 0.53-0.19323 1.0625-0.1672 1.581 0.0174-0.358 0.0702-0.72 0.167-1.081 0.7291-2.721 3.5072-4.3245 6.2285-3.5955 0.729-2.7213 3.5067-4.3249 6.2287-3.5957 2.191 0.5871 3.655 2.5027 3.762 4.6472 0.114-2.341-1.402-4.5148-3.762-5.147-0.511-0.137-1.024-0.19141-1.524-0.1721zm5.2195 6.4325c-0.0265 0.156-0.0585 0.312-0.1005 0.468 2.1915 0.587 3.6555 2.5025 3.7625 4.6475 0.113-2.3075-1.3605-4.448-3.662-5.1155zm-12.659 7.6266c-0.064 0.374-0.085001 0.747-0.0665 1.1135 0.0175-0.358 0.0705-0.7205 0.167-1.0815-0.0345-9e-3 -0.0665-0.022-0.1005-0.032z" style="fill:#ffffff;opacity:.1"/>
 <path d="m19.4219 8.2148c-1.187-2.056-3.797-2.7555-5.853-1.5684-1.187-2.056-3.7982-2.7555-5.8542-1.5686s-2.7555 3.7977-1.5684 5.8537c-2.056 1.1865-2.7555 3.7975-1.5686 5.8535 1.187 2.056 3.7978 2.7555 5.8537 1.5685 1.187 2.056 3.7978 2.7555 5.8537 1.5685 2.056-1.187 2.7555-3.7978 1.5685-5.8537 2.056-1.187 2.7555-3.7978 1.5685-5.8537z" style="opacity:.2"/>
 <path d="m19.4219 7.7148c-1.187-2.056-3.797-2.7555-5.853-1.5684-1.187-2.056-3.7982-2.7555-5.8542-1.5686s-2.7555 3.7977-1.5684 5.8537c-2.056 1.1865-2.7555 3.7975-1.5686 5.8535 1.187 2.056 3.7978 2.7555 5.8537 1.5685 1.187 2.056 3.7978 2.7555 5.8537 1.5685 2.056-1.187 2.7555-3.7978 1.5685-5.8537 2.056-1.187 2.7555-3.7978 1.5685-5.8537z" style="fill:#dc6ca0"/>
 <path d="m13.0469 8.5913a2.6977 2.6977 0 0 0 -2.7845 0.8994 2.6977 2.6977 0 0 0 -2.1712 1.9623 2.6977 2.6977 0 0 0 0.89937 2.7848 2.6977 2.6977 0 0 0 1.962 2.1713 2.6977 2.6977 0 0 0 2.7848 -0.89937 2.6977 2.6977 0 0 0 2.1713 -1.962 2.6977 2.6977 0 0 0 -0.89937 -2.7848 2.6977 2.6977 0 0 0 -1.962 -2.1713z" style="opacity:.2"/>
 <path d="m13.0469 8.0913a2.6977 2.6977 0 0 0 -2.7845 0.8994 2.6977 2.6977 0 0 0 -2.1712 1.962 2.6977 2.6977 0 0 0 0.8994 2.7843 2.6977 2.6977 0 0 0 1.962 2.172 2.6977 2.6977 0 0 0 2.7843 -0.9 2.6977 2.6977 0 0 0 2.172 -1.962 2.6977 2.6977 0 0 0 -0.9 -2.7845 2.6977 2.6977 0 0 0 -1.962 -2.1712z" style="fill:#f0a9ca"/>
 <path d="m12.2459 8.002a2.6977 2.6977 0 0 0 -1.9843 0.9882 2.6977 2.6977 0 0 0 -2.1699 1.9629 2.6977 2.6977 0 0 0 -0.0762 0.9489 2.6977 2.6977 0 0 1 0.0762 -0.449 2.6977 2.6977 0 0 1 2.1699 -1.9628 2.6977 2.6977 0 0 1 2.7853 -0.8984 2.6977 2.6977 0 0 1 1.963 2.1699 2.6977 2.6977 0 0 1 0.974 1.8363 2.6977 2.6977 0 0 0 -0.974 -2.3363 2.6977 2.6977 0 0 0 -1.963 -2.1699 2.6977 2.6977 0 0 0 -0.801 -0.0898z" style="fill:#ffffff;opacity:.2"/>
 <path d="m10.1581 4.0098c-0.8227-0.0575-1.6724 0.1232-2.4434 0.5683-1.4177 0.8184-2.171 2.3141-2.125 3.8379 0.1172-1.3439 0.863-2.6093 2.125-3.3379 2.0561-1.1869 4.6672-0.4876 5.8532 1.5684 2.056-1.187 4.6667-0.48765 5.8535 1.5684 0.3685 0.63823 0.53591 1.3296 0.55664 2.0156 0.07374-0.84545-0.09826-1.7217-0.55664-2.5156-1.187-2.0561-3.798-2.7554-5.854-1.5684-0.741-1.285-2.039-2.0409-3.4098-2.1367zm-4.1816 6.5449c-1.3016 0.8383-1.9991 2.2573-1.9551 3.7153 0.1172-1.344 0.8629-2.61 2.125-3.3384-0.0706-0.1221-0.1126-0.2512-0.1699-0.3769zm12.046 3.3903c-0.05946 0.03829-0.10798 0.08729-0.16992 0.12305 0.3685 0.63824 0.5359 1.3296 0.55664 2.0156 0.06239-0.71535-0.07152-1.4477-0.38672-2.1387z" style="fill:#ffffff;opacity:.1"/>
</svg>

<svg xmlns="http://www.w3.org/2000/svg" width="24" height="24" version="1">
 <path style="fill:#c53b7c" d="M 14.6329,2.1759 C 11.9109,1.44669 9.1334,3.0504 8.4039,5.772 5.6829,5.0425 2.9049,6.6465 2.1759,9.3675 c -0.72915,2.7213 0.87461,5.499 3.5959,6.228 -0.72915,2.7213 0.87461,5.499 3.5959,6.228 2.7213,0.72916 5.499,-0.8746 6.228,-3.5959 2.7213,0.72916 5.499,-0.8746 6.228,-3.5959 0.7295,-2.7205 -0.8745,-5.498 -3.596,-6.2275 0.7295,-2.721 -0.8745,-5.499 -3.5955,-6.228 z"/>
 <path style="opacity:0.2" d="m 18.3959,7.323 c -0.01747,0.35801 -0.07028,0.72015 -0.16699,1.0811 0.03446,0.00924 0.06649,0.02234 0.10059,0.032225 0.06408,-0.37417 0.08477,-0.747 0.0664,-1.1133 z m -16.387,3.625 c -0.11257,2.3071 1.3606,4.448 3.6621,5.115 0.02668,-0.15578 0.05884,-0.31198 0.10059,-0.46778 -2.1913,-0.586 -3.6553,-2.502 -3.7627,-4.6467 z m 19.983,2.604 c -0.01747,0.35801 -0.07028,0.72016 -0.16699,1.0811 -0.72915,2.7213 -3.5073,4.3249 -6.2285,3.5957 -0.72916,2.7213 -3.5073,4.3249 -6.2285,3.5957 -2.1913,-0.58715 -3.6552,-2.5028 -3.7627,-4.6475 -0.11424,2.3413 1.4024,4.515 3.7627,5.1475 2.7213,0.72916 5.4995,-0.8744 6.2285,-3.5957 2.7213,0.72916 5.4995,-0.8744 6.2285,-3.5957 0.14201,-0.53 0.19298,-1.0624 0.16699,-1.5811 z"/>
 <path style="opacity:0.1;fill:#ffffff" d="M 13.1099,2.0039 C 10.9409,2.0875 8.9964,3.5604 8.4044,5.7715 5.6829,5.0425 2.9049,6.646 2.1759,9.367 2.0336,9.897 1.98267,10.4295 2.0087,10.948 2.0261,10.59 2.0789,10.228 2.1757,9.867 2.9048,7.146 5.6829,5.5425 8.4042,6.2715 c 0.729,-2.7213 3.5067,-4.3249 6.2287,-3.5957 2.191,0.5871 3.655,2.5027 3.762,4.6472 0.114,-2.341 -1.402,-4.5148 -3.762,-5.147 -0.511,-0.137 -1.024,-0.19141 -1.524,-0.1721 z m 5.2195,6.4325 c -0.0265,0.156 -0.0585,0.312 -0.1005,0.468 2.1915,0.587 3.6555,2.5025 3.7625,4.6475 0.113,-2.3075 -1.3605,-4.448 -3.662,-5.1155 z M 5.6704,16.063 C 5.6064,16.437 5.585399,16.81 5.6039,17.1765 5.6214,16.8185 5.6744,16.456 5.7709,16.095 5.7364,16.086 5.7044,16.073 5.6704,16.063 Z"/>
 <path style="opacity:0.2" d="M 19.4219,8.2148 C 18.2349,6.1588 15.6249,5.4593 13.5689,6.6464 12.3819,4.5904 9.7707,3.8909 7.7147,5.0778 5.6587,6.2647 4.9592,8.8755 6.1463,10.9315 4.0903,12.118 3.3908,14.729 4.5777,16.785 c 1.187,2.056 3.7978,2.7555 5.8537,1.5685 1.187,2.056 3.7978,2.7555 5.8537,1.5685 2.056,-1.187 2.7555,-3.7978 1.5685,-5.8537 2.056,-1.187 2.7555,-3.7978 1.5685,-5.8537 z"/>
 <path style="fill:#dc6ca0" d="M 19.4219,7.7148 C 18.2349,5.6588 15.6249,4.9593 13.5689,6.1464 12.3819,4.0904 9.7707,3.3909 7.7147,4.5778 5.6587,5.7647 4.9592,8.3755 6.1463,10.4315 4.0903,11.618 3.3908,14.229 4.5777,16.285 c 1.187,2.056 3.7978,2.7555 5.8537,1.5685 1.187,2.056 3.7978,2.7555 5.8537,1.5685 2.056,-1.187 2.7555,-3.7978 1.5685,-5.8537 2.056,-1.187 2.7555,-3.7978 1.5685,-5.8537 z"/>
 <path style="opacity:0.2" d="m 13.0469,8.5913 a 2.6977,2.6977 0 0 0 -2.7845,0.8994 2.6977,2.6977 0 0 0 -2.1712,1.9623 2.6977,2.6977 0 0 0 0.89937,2.7848 2.6977,2.6977 0 0 0 1.962,2.1713 2.6977,2.6977 0 0 0 2.7848,-0.89937 2.6977,2.6977 0 0 0 2.1713,-1.962 2.6977,2.6977 0 0 0 -0.89937,-2.7848 2.6977,2.6977 0 0 0 -1.962,-2.1713 z"/>
 <path style="fill:#f0a9ca" d="m 13.0469,8.0913 a 2.6977,2.6977 0 0 0 -2.7845,0.8994 2.6977,2.6977 0 0 0 -2.1712,1.962 2.6977,2.6977 0 0 0 0.8994,2.7843 2.6977,2.6977 0 0 0 1.962,2.172 2.6977,2.6977 0 0 0 2.7843,-0.9 2.6977,2.6977 0 0 0 2.172,-1.962 2.6977,2.6977 0 0 0 -0.9,-2.7845 2.6977,2.6977 0 0 0 -1.962,-2.1712 z"/>
 <path style="opacity:0.2;fill:#ffffff" d="m 12.2459,8.002 a 2.6977,2.6977 0 0 0 -1.9843,0.9882 2.6977,2.6977 0 0 0 -2.1699,1.9629 2.6977,2.6977 0 0 0 -0.0762,0.9489 2.6977,2.6977 0 0 1 0.0762,-0.449 2.6977,2.6977 0 0 1 2.1699,-1.9628 2.6977,2.6977 0 0 1 2.7853,-0.8984 2.6977,2.6977 0 0 1 1.963,2.1699 2.6977,2.6977 0 0 1 0.974,1.8363 2.6977,2.6977 0 0 0 -0.974,-2.3363 2.6977,2.6977 0 0 0 -1.963,-2.1699 2.6977,2.6977 0 0 0 -0.801,-0.0898 z"/>
 <path style="opacity:0.1;fill:#ffffff" d="M 10.1581,4.0098 C 9.3354,3.9523 8.4857,4.133 7.7147,4.5781 6.297,5.3965 5.5437,6.8922 5.5897,8.416 5.7069,7.0721 6.4527,5.8067 7.7147,5.0781 c 2.0561,-1.1869 4.6672,-0.4876 5.8532,1.5684 2.056,-1.187 4.6667,-0.48765 5.8535,1.5684 0.3685,0.63823 0.53591,1.3296 0.55664,2.0156 C 20.05178,9.38505 19.87978,8.5088 19.4214,7.7149 18.2344,5.6588 15.6234,4.9595 13.5674,6.1465 12.8264,4.8615 11.5284,4.1056 10.1576,4.0098 Z M 5.9765,10.5547 C 4.6749,11.393 3.9774,12.812 4.0214,14.27 4.1386,12.926 4.8843,11.66 6.1464,10.9316 6.0758,10.8095 6.0338,10.6804 5.9765,10.5547 Z m 12.046,3.3903 c -0.05946,0.03829 -0.10798,0.08729 -0.16992,0.12305 0.3685,0.63824 0.5359,1.3296 0.55664,2.0156 0.06239,-0.71535 -0.07152,-1.4477 -0.38672,-2.1387 z"/>
</svg>
